X:061
T:la Morisque
M:4/4
L:1/4
K:G
B/2c/2 dde | d3 c | B GGA | F2 D2 |
B/2c/2 dde | d3 c | B GGA | G4 :||
BGGA | BGcA | BGGA | F2D2 |
BGGA | BGcA | BGGA | G4 :|
